<?xml version="1.0" encoding="UTF-8"?>
<map version="1.10" tiledversion="1.11.2" orientation="orthogonal" renderorder="right-down" width="40" height="23" tilewidth="16" tileheight="16" infinite="0" nextlayerid="4" nextobjectid="17">
 <tileset firstgid="1" source="Pixel Adventure.tsx"/>
 <layer id="1" name="Background" width="40" height="23">
  <data encoding="csv">
24,24,24,24,24,24,24,24,24,24,24,24,24,24,24,24,24,24,24,24,24,24,24,24,24,24,24,24,24,24,24,24,24,24,24,24,24,24,24,112,
24,112,92,134,134,134,134,134,134,134,134,134,134,134,134,134,134,134,134,134,134,134,134,134,134,134,134,134,134,134,134,134,134,134,134,134,134,2147483740,24,112,
24,112,113,0,0,0,0,0,0,0,0,0,0,0,0,0,0,0,0,0,0,0,0,0,0,0,0,0,0,0,0,0,0,0,0,0,0,111,24,112,
24,112,113,0,0,0,0,0,0,0,0,0,0,0,0,0,0,0,0,0,0,0,0,0,0,0,0,0,0,0,0,0,0,0,0,0,0,111,24,112,
24,112,113,0,0,0,0,0,0,0,0,0,0,0,0,0,0,0,0,0,0,0,0,0,0,0,0,0,0,0,0,0,0,0,0,0,0,111,112,112,
24,112,113,0,0,0,0,0,0,0,0,0,0,0,0,0,0,0,0,0,0,0,0,0,0,0,0,0,0,0,0,0,0,0,0,0,0,111,112,112,
24,112,113,0,0,0,0,0,0,0,0,0,0,0,0,0,0,0,0,0,0,0,0,0,0,0,0,0,0,0,0,0,0,0,0,0,0,111,112,112,
24,112,113,0,0,0,0,0,0,0,0,0,0,0,0,0,0,0,0,0,0,0,0,0,0,0,0,0,0,0,0,0,0,0,0,0,0,111,112,112,
24,112,113,0,0,0,0,0,0,0,0,0,0,0,0,0,0,0,0,0,0,0,0,0,0,0,0,0,0,0,0,0,0,0,0,0,0,111,112,112,
24,112,113,0,0,0,0,0,0,0,0,0,0,0,0,0,0,0,0,0,0,0,0,0,0,0,0,0,0,0,0,0,0,0,0,0,0,111,112,112,
24,112,113,0,0,0,0,0,0,0,0,0,0,0,0,0,0,0,0,0,0,0,0,0,0,0,0,0,0,0,0,0,0,0,0,0,0,111,112,112,
24,112,113,0,0,0,0,0,0,0,0,0,0,0,0,0,0,0,0,0,0,0,0,0,0,0,0,0,0,0,0,0,0,0,0,0,0,111,24,112,
24,112,113,7,8,8,8,8,8,8,8,8,8,8,8,9,0,0,0,0,0,0,0,0,0,0,0,0,0,0,0,0,0,0,0,0,0,111,112,112,
24,112,113,29,30,30,30,30,30,30,30,30,30,30,30,31,0,0,0,0,0,0,0,0,0,0,7,8,8,8,8,8,8,9,0,0,0,111,112,112,
24,112,113,29,30,30,30,30,30,30,30,30,30,30,30,31,0,0,0,0,0,0,0,0,0,0,51,52,52,52,52,30,30,31,0,0,0,111,112,112,
24,112,113,29,30,30,30,30,30,30,30,30,30,30,30,31,0,0,0,0,0,0,7,8,9,0,0,0,0,0,0,29,30,31,0,0,0,111,112,112,
24,112,113,29,30,30,30,30,30,30,30,30,30,30,30,31,0,0,0,0,0,0,51,52,53,0,0,0,0,0,0,29,30,30,8,8,9,111,112,112,
24,112,113,29,30,30,30,30,30,30,30,30,30,30,30,31,0,0,0,0,0,0,0,0,0,0,0,0,0,0,0,29,30,30,30,30,31,111,24,112,
24,112,113,29,30,30,30,30,30,30,30,30,30,30,30,31,0,0,7,8,9,0,0,0,0,7,8,8,8,8,8,30,30,30,30,30,31,111,24,112,
24,112,113,29,30,30,30,30,30,30,30,30,30,30,30,31,0,0,29,30,31,0,0,0,0,29,30,30,30,30,30,30,30,30,30,30,31,111,24,112,
112,112,113,51,52,52,52,52,52,52,52,52,52,52,52,53,0,0,51,52,53,0,0,0,0,51,52,52,52,52,52,52,52,52,52,52,53,111,24,112,
24,112,1073741916,90,90,90,90,90,90,90,90,90,90,90,90,90,90,90,90,90,90,90,90,90,90,90,90,90,90,90,90,90,90,90,90,90,90,1610612850,24,112,
24,24,24,24,24,24,24,24,24,24,24,24,24,24,24,24,24,24,24,24,24,24,24,24,24,24,24,24,24,24,24,24,24,24,24,24,24,24,24,112
</data>
 </layer>
 <objectgroup id="2" name="Spawnpoints">
  <object id="1" name="Player" type="Player" x="48" y="160" width="28.7333" height="29.8826"/>
  <object id="2" name="Checkpoint" type="Checkpoint" x="544" y="192" width="64" height="64"/>
  <object id="3" name="Bananas" type="Fruit" x="352" y="304" width="32" height="32"/>
  <object id="4" name="Bananas" type="Fruit" x="256" y="304" width="32" height="32"/>
  <object id="5" name="Chicken" type="Enemy" x="464" y="176" width="32" height="32">
   <properties>
    <property name="offNeg" type="float" value="4"/>
    <property name="offPos" type="float" value="4"/>
   </properties>
  </object>
 </objectgroup>
 <objectgroup id="3" name="Collisions">
  <object id="6" x="32" y="16" width="576" height="16"/>
  <object id="7" x="592" y="32" width="16" height="320"/>
  <object id="8" x="32" y="336" width="560" height="16"/>
  <object id="9" x="32" y="32" width="16" height="304"/>
  <object id="10" x="48" y="192" width="208" height="144"/>
  <object id="11" x="288" y="288" width="48" height="48"/>
  <object id="12" x="352" y="240" width="48" height="32"/>
  <object id="13" x="400" y="288" width="192" height="48"/>
  <object id="14" x="496" y="256" width="96" height="32"/>
  <object id="15" x="496" y="208" width="48" height="48"/>
  <object id="16" x="416" y="208" width="80" height="32"/>
 </objectgroup>
</map>
