<?xml version="1.0" encoding="UTF-8"?>
<map version="1.10" tiledversion="1.11.2" orientation="orthogonal" renderorder="right-down" width="40" height="23" tilewidth="16" tileheight="16" infinite="0" nextlayerid="4" nextobjectid="27">
 <tileset firstgid="1" source="Pixel Adventure.tsx"/>
 <layer id="1" name="Background" width="40" height="23">
  <properties>
   <property name="BackgroundColor" value="Blue"/>
  </properties>
  <data encoding="csv">
112,112,112,112,112,112,112,112,112,112,112,112,112,112,112,112,112,112,112,112,112,112,112,112,112,112,112,112,112,112,112,112,112,112,112,112,112,112,112,112,
112,112,92,134,134,134,134,134,134,134,134,134,134,134,134,134,134,134,134,134,134,134,134,134,134,134,134,134,134,134,134,134,134,134,134,134,134,2147483740,112,112,
112,112,113,0,0,0,0,0,0,0,0,0,0,0,0,0,0,0,0,0,0,0,0,0,0,0,0,0,0,0,0,0,0,0,0,0,0,111,112,112,
112,112,113,0,0,0,0,0,0,0,0,0,0,0,0,0,0,0,0,0,0,0,0,0,0,0,0,0,0,0,0,0,0,0,0,0,0,111,112,112,
112,112,113,0,0,0,0,0,0,0,0,0,0,0,0,0,0,0,0,0,0,0,0,0,0,0,0,0,0,0,0,0,0,0,0,0,0,111,112,112,
112,112,113,0,0,0,0,0,0,0,0,0,0,0,0,0,0,0,0,0,0,0,0,0,0,0,0,0,0,0,0,0,0,0,0,0,0,111,112,112,
112,112,113,0,0,0,0,0,0,0,0,0,0,0,0,0,0,0,0,0,0,0,0,0,0,0,0,0,0,0,0,0,0,0,0,0,0,111,112,112,
112,112,113,0,0,0,0,0,0,0,0,0,0,0,0,0,0,0,0,0,0,0,0,0,0,0,0,0,0,0,0,0,0,0,0,0,0,111,112,112,
112,112,113,0,0,0,0,0,0,0,0,0,0,0,0,0,0,0,0,0,0,0,0,0,0,0,0,0,0,0,0,0,0,0,0,0,0,111,112,112,
112,112,113,0,0,0,0,0,0,0,0,0,0,0,0,0,0,0,0,0,0,0,0,0,0,0,0,0,0,0,0,0,0,0,0,0,0,111,112,112,
112,112,113,0,0,0,0,0,0,0,0,0,0,0,0,0,0,0,0,0,0,0,0,0,0,0,0,0,0,0,0,0,0,0,0,0,0,111,112,112,
112,112,113,0,0,0,0,0,0,0,0,0,0,0,0,0,0,0,0,0,0,0,0,0,0,0,0,0,0,0,0,0,0,0,0,0,0,111,112,112,
112,112,113,0,0,0,0,0,0,0,0,0,0,0,0,0,0,0,0,0,0,0,0,0,0,0,0,0,0,0,0,0,0,0,0,0,0,111,112,112,
112,112,113,7,8,8,8,9,0,0,0,0,0,0,0,0,0,0,0,0,0,0,0,0,0,0,0,0,0,0,0,0,0,0,0,0,0,111,112,112,
112,112,113,29,30,30,30,31,0,0,0,0,0,0,0,0,0,0,0,0,0,0,0,0,0,0,0,0,0,0,0,0,0,0,7,8,9,111,112,112,
112,112,113,29,30,30,30,31,0,0,0,0,0,0,0,0,0,0,0,0,0,0,0,0,0,0,0,0,0,0,0,0,0,0,29,30,31,111,112,112,
112,112,113,29,30,30,30,31,0,0,0,0,0,0,0,0,0,0,0,0,0,0,0,0,0,0,0,0,0,0,0,0,0,0,29,30,31,111,112,112,
112,112,113,29,30,30,30,31,0,0,0,0,0,0,0,0,0,0,0,0,0,0,0,0,0,0,0,0,0,0,0,0,0,0,29,30,31,111,112,112,
112,112,113,29,30,30,30,31,0,0,7,8,9,0,0,7,8,9,0,0,7,8,9,0,0,7,8,8,8,8,8,8,9,0,29,30,31,111,112,112,
112,112,113,29,30,30,30,31,0,0,29,30,31,0,0,29,30,31,0,0,29,30,31,0,0,29,30,30,30,30,30,30,31,0,29,30,31,111,112,112,
112,112,113,51,52,52,52,53,0,0,51,52,53,0,0,51,52,53,0,0,51,52,53,0,0,51,52,52,52,52,52,52,53,0,51,52,53,111,112,112,
112,112,1073741916,90,90,90,90,90,90,90,90,90,90,90,90,90,90,90,90,90,90,90,90,90,90,90,90,90,90,90,90,90,90,90,90,90,90,3221225564,112,112,
112,112,112,112,112,112,112,112,112,112,112,112,112,112,112,112,112,112,112,112,112,112,112,112,112,112,112,112,112,112,112,112,112,112,112,112,112,112,112,112
</data>
 </layer>
 <objectgroup id="2" name="Spawnpoints">
  <object id="14" name="Player" type="Player" x="64" y="176" width="30.5" height="29"/>
  <object id="15" name="Checkpoint" type="Checkpoint" x="544" y="160" width="64" height="64"/>
 </objectgroup>
 <objectgroup id="3" name="Collisions">
  <object id="16" x="32" y="32" width="16" height="320"/>
  <object id="17" x="48" y="336" width="560" height="16"/>
  <object id="18" x="592" y="16" width="16" height="320"/>
  <object id="19" x="32" y="16" width="560" height="16"/>
  <object id="20" x="48" y="208" width="80" height="128"/>
  <object id="21" x="160" y="288" width="48" height="48"/>
  <object id="22" x="240" y="288" width="48" height="48"/>
  <object id="23" x="320" y="288" width="48" height="48"/>
  <object id="24" x="400" y="288" width="128" height="48"/>
  <object id="25" x="544" y="224" width="48" height="112"/>
 </objectgroup>
</map>
