<?xml version="1.0" encoding="UTF-8"?>
<map version="1.10" tiledversion="1.11.2" orientation="orthogonal" renderorder="right-down" width="40" height="23" tilewidth="16" tileheight="16" infinite="0" nextlayerid="4" nextobjectid="18">
 <tileset firstgid="1" source="Pixel Adventure.tsx"/>
 <layer id="1" name="Background" width="40" height="23" locked="1">
  <data encoding="csv">
112,112,112,112,112,112,112,112,112,112,112,112,112,112,112,112,112,112,112,112,112,112,112,112,112,112,112,112,112,112,112,112,112,112,112,112,112,112,112,112,
112,112,92,134,134,134,134,134,134,134,134,134,134,134,134,134,134,134,134,134,134,134,134,134,134,134,134,134,134,134,134,134,134,134,134,134,134,2147483740,112,112,
112,112,113,0,0,0,0,0,0,0,0,0,0,0,0,0,0,0,0,0,0,0,0,0,0,0,0,0,0,0,0,0,0,0,0,0,0,111,112,112,
112,112,113,0,0,0,0,0,0,0,0,0,0,0,0,0,0,0,0,0,0,0,0,0,0,0,0,0,0,0,0,0,0,0,0,0,0,111,112,112,
112,112,113,0,0,0,0,0,0,0,0,0,0,0,0,0,0,0,0,0,0,0,0,0,0,0,0,0,0,0,0,0,0,0,0,0,0,111,112,112,
112,112,113,0,0,0,0,0,0,0,0,0,0,0,0,0,0,0,0,0,0,0,0,0,0,0,0,0,0,0,0,0,0,0,0,0,0,111,112,112,
112,112,113,0,0,0,0,0,7,8,8,8,9,0,0,0,0,0,0,0,0,0,0,0,0,0,0,0,0,0,0,0,0,0,0,0,0,111,112,112,
112,112,113,0,0,0,0,0,29,30,30,30,31,0,0,0,0,0,0,0,0,0,0,0,0,0,0,0,0,0,0,0,0,0,0,0,0,111,112,112,
112,112,113,0,0,0,0,0,29,30,30,30,30,8,8,8,8,9,9,0,0,0,0,0,0,0,0,0,0,0,0,0,0,0,0,0,0,111,112,112,
112,112,113,0,0,0,0,0,51,52,52,52,52,52,52,52,52,52,53,0,0,0,7,8,9,0,0,0,0,0,0,0,0,0,0,0,0,111,112,112,
112,112,113,0,0,0,0,0,0,0,0,0,0,0,0,0,0,0,0,0,0,0,51,52,53,0,0,0,0,0,0,0,0,0,0,0,0,111,112,112,
112,112,113,0,0,0,0,0,0,0,0,0,0,0,0,0,0,0,0,0,0,0,0,0,0,0,0,0,0,0,0,0,0,0,0,0,0,111,112,112,
112,112,113,0,0,0,0,0,0,0,0,0,0,0,0,0,0,0,0,0,0,0,0,0,0,0,0,0,0,0,0,0,0,0,0,0,0,111,112,112,
112,112,113,0,0,0,0,0,0,0,0,0,0,0,0,0,0,0,7,8,8,8,8,8,8,8,8,8,8,8,8,8,8,8,8,8,9,111,112,112,
112,112,113,7,8,8,8,8,8,8,8,8,8,8,9,0,0,0,29,30,30,30,30,30,30,30,30,30,30,30,30,30,30,30,30,30,31,111,112,112,
112,112,113,29,30,30,30,30,30,30,30,30,30,30,31,0,0,0,29,30,30,30,30,30,30,30,30,30,30,30,30,30,30,30,30,30,31,111,112,112,
112,112,113,29,30,30,30,30,30,30,30,30,30,30,31,0,0,0,29,30,30,30,30,30,30,30,30,30,30,30,30,30,30,30,30,30,31,111,112,112,
112,112,113,29,30,30,30,30,30,30,30,30,30,30,31,0,0,0,29,30,30,30,30,30,30,30,30,30,30,30,30,30,30,30,30,30,31,111,112,112,
112,112,113,29,30,30,30,30,30,30,30,30,30,30,30,8,8,8,30,30,30,30,30,30,30,30,30,30,30,30,30,30,30,30,30,30,31,111,112,112,
112,112,113,29,30,30,30,30,30,30,30,30,30,30,30,30,30,30,30,30,30,30,30,30,30,30,30,30,30,30,30,30,30,30,30,30,31,111,112,112,
112,112,113,51,52,52,52,52,52,52,52,52,52,52,52,52,52,52,52,52,52,52,52,52,52,52,52,52,52,52,52,52,52,52,52,52,53,111,112,112,
112,112,1073741916,90,90,90,90,90,90,90,90,90,90,90,90,90,90,90,90,90,90,90,90,90,90,90,90,90,90,90,90,90,90,90,90,90,90,3221225564,112,112,
112,112,112,112,112,112,112,112,112,112,112,112,112,112,112,112,112,112,112,112,112,112,112,112,112,112,112,112,112,112,112,112,112,112,112,112,112,112,112,112
</data>
 </layer>
 <objectgroup id="2" name="Spawnpoints" locked="1">
  <object id="1" name="Player" type="Player" x="64" y="192" width="30.5" height="29"/>
  <object id="2" name="Checkpoint" type="Checkpoint" x="544" y="144" width="64" height="64"/>
  <object id="3" name="Bananas" type="Fruit" x="128" y="64" width="32" height="32"/>
  <object id="4" name="Bananas" type="Fruit" x="368" y="112" width="32" height="32"/>
  <object id="5" name="Bananas" type="Fruit" x="256" y="256" width="32" height="32"/>
  <object id="6" name="Chicken" type="Enemy" x="224" y="96" width="32" height="32">
   <properties>
    <property name="offNeg" type="float" value="2"/>
    <property name="offPos" type="float" value="4"/>
   </properties>
  </object>
 </objectgroup>
 <objectgroup id="3" name="Collisions" locked="1">
  <object id="7" x="32" y="16" width="576" height="16"/>
  <object id="8" x="592" y="32" width="16" height="320"/>
  <object id="9" x="32" y="336" width="560" height="16"/>
  <object id="10" x="32" y="32" width="16" height="304"/>
  <object id="12" x="128" y="96" width="80" height="64"/>
  <object id="13" x="208" y="128" width="96" height="32"/>
  <object id="14" x="352" y="144" width="48" height="32"/>
  <object id="15" x="48" y="224" width="192" height="112"/>
  <object id="16" x="240" y="288" width="48" height="48"/>
  <object id="17" x="288" y="208" width="304" height="128"/>
 </objectgroup>
</map>
